static/img/kroki/62a884bb66690340cb3ee76d8298661c.svg

<?xml version="1.0" encoding="us-ascii" standalone="no"?><svg xmlns="http://www.w3.org/2000/svg" xmlns:xlink="http://www.w3.org/1999/xlink" contentStyleType="text/css" height="374px" preserveAspectRatio="none" style="width:406px;height:374px;" version="1.1" viewBox="0 0 406 374" width="406px" zoomAndPan="magnify"><defs/><g><!--class azure_network_load_balancer--><g id="elem_azure_network_load_balancer"><rect codeLine="23" fill="#3D176E" height="39.7891" id="azure_network_load_balancer" rx="2.5" ry="2.5" style="stroke:#000D19;stroke-width:0.5;" width="291" x="46" y="328.58"/><ellipse cx="61" cy="348.4745" fill="#ADD1B2" rx="11" ry="11" style="stroke:#181818;stroke-width:1.0;"/><path d="M63.9688,354.1152 Q63.3906,354.412 62.75,354.5527 Q62.1094,354.7089 61.4063,354.7089 Q58.9063,354.7089 57.5781,353.0683 Q56.2656,351.412 56.2656,348.287 Q56.2656,345.162 57.5781,343.5058 Q58.9063,341.8495 61.4063,341.8495 Q62.1094,341.8495 62.75,342.0058 Q63.4063,342.162 63.9688,342.4589 L63.9688,345.1777 Q63.3438,344.5995 62.75,344.3339 Q62.1563,344.0527 61.5313,344.0527 Q60.1875,344.0527 59.5,345.1308 Q58.8125,346.1933 58.8125,348.287 Q58.8125,350.3808 59.5,351.4589 Q60.1875,352.5214 61.5313,352.5214 Q62.1563,352.5214 62.75,352.2558 Q63.3438,351.9745 63.9688,351.3964 L63.9688,354.1152 Z " fill="#000000"/><text fill="#D9B8FF" font-family="Helvetica" font-size="17" lengthAdjust="spacing" textLength="249" x="80" y="354.3598">azure_network_load_balancer</text></g><!--class load_balancer--><g id="elem_load_balancer"><rect codeLine="26" fill="#3D176E" height="39.7891" id="load_balancer" rx="2.5" ry="2.5" style="stroke:#000D19;stroke-width:0.5;" width="157" x="7" y="167.79"/><ellipse cx="22" cy="187.6845" fill="#ADD1B2" rx="11" ry="11" style="stroke:#181818;stroke-width:1.0;"/><path d="M24.9688,193.3252 Q24.3906,193.622 23.75,193.7627 Q23.1094,193.9189 22.4063,193.9189 Q19.9063,193.9189 18.5781,192.2783 Q17.2656,190.622 17.2656,187.497 Q17.2656,184.372 18.5781,182.7158 Q19.9063,181.0595 22.4063,181.0595 Q23.1094,181.0595 23.75,181.2158 Q24.4063,181.372 24.9688,181.6689 L24.9688,184.3877 Q24.3438,183.8095 23.75,183.5439 Q23.1563,183.2627 22.5313,183.2627 Q21.1875,183.2627 20.5,184.3408 Q19.8125,185.4033 19.8125,187.497 Q19.8125,189.5908 20.5,190.6689 Q21.1875,191.7314 22.5313,191.7314 Q23.1563,191.7314 23.75,191.4658 Q24.3438,191.1845 24.9688,190.6064 L24.9688,193.3252 Z " fill="#000000"/><text fill="#D9B8FF" font-family="Helvetica" font-size="17" lengthAdjust="spacing" textLength="115" x="41" y="193.5698">load_balancer</text></g><!--class microsoft_resource--><g id="elem_microsoft_resource"><rect codeLine="29" fill="#3D176E" height="39.7891" id="microsoft_resource" rx="2.5" ry="2.5" style="stroke:#000D19;stroke-width:0.5;" width="200" x="199.5" y="167.79"/><ellipse cx="214.5" cy="187.6845" fill="#ADD1B2" rx="11" ry="11" style="stroke:#181818;stroke-width:1.0;"/><path d="M217.4688,193.3252 Q216.8906,193.622 216.25,193.7627 Q215.6094,193.9189 214.9063,193.9189 Q212.4063,193.9189 211.0781,192.2783 Q209.7656,190.622 209.7656,187.497 Q209.7656,184.372 211.0781,182.7158 Q212.4063,181.0595 214.9063,181.0595 Q215.6094,181.0595 216.25,181.2158 Q216.9063,181.372 217.4688,181.6689 L217.4688,184.3877 Q216.8438,183.8095 216.25,183.5439 Q215.6563,183.2627 215.0313,183.2627 Q213.6875,183.2627 213,184.3408 Q212.3125,185.4033 212.3125,187.497 Q212.3125,189.5908 213,190.6689 Q213.6875,191.7314 215.0313,191.7314 Q215.6563,191.7314 216.25,191.4658 Q216.8438,191.1845 217.4688,190.6064 L217.4688,193.3252 Z " fill="#000000"/><text fill="#D9B8FF" font-family="Helvetica" font-size="17" lengthAdjust="spacing" textLength="158" x="233.5" y="193.5698">microsoft_resource</text></g><!--class resource--><g id="elem_resource"><rect codeLine="32" fill="#3D176E" height="39.7891" id="resource" rx="2.5" ry="2.5" style="stroke:#000D19;stroke-width:0.5;" width="113" x="135" y="7"/><ellipse cx="150" cy="26.8945" fill="#ADD1B2" rx="11" ry="11" style="stroke:#181818;stroke-width:1.0;"/><path d="M152.9688,32.5352 Q152.3906,32.832 151.75,32.9727 Q151.1094,33.1289 150.4063,33.1289 Q147.9063,33.1289 146.5781,31.4883 Q145.2656,29.832 145.2656,26.707 Q145.2656,23.582 146.5781,21.9258 Q147.9063,20.2695 150.4063,20.2695 Q151.1094,20.2695 151.75,20.4258 Q152.4063,20.582 152.9688,20.8789 L152.9688,23.5977 Q152.3438,23.0195 151.75,22.7539 Q151.1563,22.4727 150.5313,22.4727 Q149.1875,22.4727 148.5,23.5508 Q147.8125,24.6133 147.8125,26.707 Q147.8125,28.8008 148.5,29.8789 Q149.1875,30.9414 150.5313,30.9414 Q151.1563,30.9414 151.75,30.6758 Q152.3438,30.3945 152.9688,29.8164 L152.9688,32.5352 Z " fill="#000000"/><text fill="#D9B8FF" font-family="Helvetica" font-size="17" lengthAdjust="spacing" textLength="71" x="169" y="32.7798">resource</text></g><!--reverse link load_balancer to azure_network_load_balancer--><g id="link_load_balancer_azure_network_load_balancer"><path codeLine="35" d="M108.2825,222.8116 C128.6525,253.3316 158.27,297.69 178.67,328.25 " fill="none" id="load_balancer-backto-azure_network_load_balancer" style="stroke:#FFAF37;stroke-width:2.0;"/><polygon fill="none" points="98.29,207.84,103.292,226.1425,113.2731,219.4808,98.29,207.84" style="stroke:#FFAF37;stroke-width:2.0;"/></g><!--reverse link microsoft_resource to azure_network_load_balancer--><g id="link_microsoft_resource_azure_network_load_balancer"><path codeLine="36" d="M276.3463,222.7232 C255.5863,253.2432 225.36,297.69 204.57,328.25 " fill="none" id="microsoft_resource-backto-azure_network_load_balancer" style="stroke:#FFAF37;stroke-width:2.0;"/><polygon fill="none" points="286.47,207.84,271.3852,219.3487,281.3074,226.0978,286.47,207.84" style="stroke:#FFAF37;stroke-width:2.0;"/></g><!--reverse link resource to load_balancer--><g id="link_resource_load_balancer"><path codeLine="37" d="M168.7175,62.0216 C148.3475,92.5416 118.73,136.9 98.33,167.46 " fill="none" id="resource-backto-load_balancer" style="stroke:#FFAF37;stroke-width:2.0;"/><polygon fill="none" points="178.71,47.05,163.7269,58.6908,173.708,65.3525,178.71,47.05" style="stroke:#FFAF37;stroke-width:2.0;"/></g><!--reverse link resource to microsoft_resource--><g id="link_resource_microsoft_resource"><path codeLine="38" d="M214.6537,61.9332 C235.4137,92.4532 265.64,136.9 286.43,167.46 " fill="none" id="resource-backto-microsoft_resource" style="stroke:#FFAF37;stroke-width:2.0;"/><polygon fill="none" points="204.53,47.05,209.6926,65.3078,219.6148,58.5587,204.53,47.05" style="stroke:#FFAF37;stroke-width:2.0;"/></g><!--SRC=[XP11Jy9048Nl_HMRS2O1YGA95o0nUY56l3VJtLdOjDqXirC9gFzT43HB2-KwxvlttipA6LHOhcMhIYmpv924tFarC9HgmaoR6HN4gcCjsC6mBZwHbvl074fKprXye3WDTU9zvNJkCGHr5qbJqFcIgVBcQ2yCFkmbz19Him92c8Ymooh1g8mPPoDhwsJTj3Cm_U43DZ1YWtn2UhsUwO_hoCserhl_YONReUh7JvkJOADc8-ANQcrv8AAIZKF_zAiTNy4OvvVgFfgz7JknHpwRBrPWQ7EWBHGXZWc2Z2JRDSuQL-5uPEpm8lno3KxquNKATXLZwb4sn7bQ49WqWmAytXVxJ9Bl4tPLA9rc2cGbPGnKiSPOFP-Tcpn-TRlTjlpaWlVjfHhQAZO3aXy0]--></g></svg>

<svg xmlns="http://www.w3.org/2000/svg" width="406" height="374" viewBox="0 0 406 374"><rect width="291" height="39.789" x="46" y="328.58" fill="#3D176E" rx="2.5" ry="2.5" style="stroke:#000d19;stroke-width:.5"/><circle cx="61" cy="348.474" r="11" fill="#ADD1B2" style="stroke:#181818;stroke-width:1"/><path d="M63.969 354.115q-.578.297-1.219.438-.64.156-1.344.156-2.5 0-3.828-1.64-1.312-1.657-1.312-4.782t1.312-4.781q1.328-1.656 3.828-1.656.703 0 1.344.156.656.156 1.219.453v2.719q-.625-.579-1.219-.844-.594-.281-1.219-.281-1.343 0-2.031 1.078-.687 1.062-.687 3.156t.687 3.172q.688 1.062 2.031 1.062.625 0 1.219-.265.594-.281 1.219-.86z"/><text x="80" y="354.36" fill="#D9B8FF" font-family="Helvetica" font-size="17" textLength="249">azure_network_load_balancer</text><rect width="157" height="39.789" x="7" y="167.79" fill="#3D176E" rx="2.5" ry="2.5" style="stroke:#000d19;stroke-width:.5"/><circle cx="22" cy="187.685" r="11" fill="#ADD1B2" style="stroke:#181818;stroke-width:1"/><path d="M24.969 193.325q-.578.297-1.219.438-.64.156-1.344.156-2.5 0-3.828-1.64-1.312-1.657-1.312-4.782t1.312-4.781q1.328-1.656 3.828-1.656.703 0 1.344.156.656.156 1.219.453v2.719q-.625-.578-1.219-.844-.594-.281-1.219-.281-1.343 0-2.031 1.078-.687 1.062-.687 3.156t.687 3.172q.688 1.062 2.031 1.062.625 0 1.219-.265.594-.281 1.219-.86z"/><text x="41" y="193.57" fill="#D9B8FF" font-family="Helvetica" font-size="17" textLength="115">load_balancer</text><rect width="200" height="39.789" x="199.5" y="167.79" fill="#3D176E" rx="2.5" ry="2.5" style="stroke:#000d19;stroke-width:.5"/><circle cx="214.5" cy="187.685" r="11" fill="#ADD1B2" style="stroke:#181818;stroke-width:1"/><path d="M217.469 193.325q-.578.297-1.219.438-.64.156-1.344.156-2.5 0-3.828-1.64-1.312-1.657-1.312-4.782t1.312-4.781q1.328-1.656 3.828-1.656.703 0 1.344.156.656.156 1.219.453v2.719q-.625-.578-1.219-.844-.594-.281-1.219-.281-1.344 0-2.031 1.078-.687 1.062-.687 3.156t.687 3.172q.688 1.062 2.031 1.062.625 0 1.219-.265.594-.281 1.219-.86z"/><text x="233.5" y="193.57" fill="#D9B8FF" font-family="Helvetica" font-size="17" textLength="158">microsoft_resource</text><rect width="113" height="39.789" x="135" y="7" fill="#3D176E" rx="2.5" ry="2.5" style="stroke:#000d19;stroke-width:.5"/><circle cx="150" cy="26.895" r="11" fill="#ADD1B2" style="stroke:#181818;stroke-width:1"/><path d="M152.969 32.535q-.578.297-1.219.438-.64.156-1.344.156-2.5 0-3.828-1.64-1.312-1.657-1.312-4.782t1.312-4.781q1.328-1.656 3.828-1.656.703 0 1.344.156.656.156 1.219.453v2.719q-.625-.578-1.219-.844-.594-.281-1.219-.281-1.344 0-2.031 1.078-.687 1.062-.687 3.156t.687 3.172q.688 1.062 2.031 1.062.625 0 1.219-.265.594-.281 1.219-.86z"/><text x="169" y="32.78" fill="#D9B8FF" font-family="Helvetica" font-size="17" textLength="71">resource</text><path fill="none" d="M108.283 222.812c20.37 30.52 49.987 74.878 70.387 105.438M98.29 207.84l5.002 18.303 9.981-6.662z" style="stroke:#ffaf37;stroke-width:2"/><g fill="none"><path d="M276.346 222.723c-20.76 30.52-50.986 74.967-71.776 105.527" style="stroke:#ffaf37;stroke-width:2"/><path d="m286.47 207.84-15.085 11.509 9.922 6.749z" style="stroke:#ffaf37;stroke-width:2"/></g><path fill="none" d="M168.718 62.022C148.348 92.542 118.73 136.9 98.33 167.46m80.38-120.41-14.983 11.64 9.981 6.663z" style="stroke:#ffaf37;stroke-width:2"/><g fill="none"><path d="M214.654 61.933c20.76 30.52 50.986 74.967 71.776 105.527" style="stroke:#ffaf37;stroke-width:2"/><path d="m204.53 47.05 5.163 18.258 9.922-6.75z" style="stroke:#ffaf37;stroke-width:2"/></g></svg>
